components/Common/Svg/svgs/twitter.svg

<svg width="24" height="24" viewBox="0 0 24 24" fill="none" xmlns="http://www.w3.org/2000/svg">
<circle cx="12" cy="12" r="12" fill="#171717"/>
<path d="M17.7669 9.04533C17.7749 9.17122 17.7749 9.30247 17.7749 9.43104C17.7749 13.3632 14.7802 17.8926 9.30792 17.8926C7.62042 17.8926 6.05614 17.4025 4.73828 16.5587C4.97935 16.5855 5.20971 16.5962 5.45614 16.5962C6.849 16.5962 8.12935 16.1248 9.14989 15.3266C7.84275 15.2998 6.74453 14.4426 6.36953 13.2641C6.82757 13.331 7.24007 13.331 7.7115 13.2105C7.03844 13.0738 6.43348 12.7082 5.9994 12.176C5.56531 11.6438 5.32887 10.9777 5.33025 10.2909V10.2534C5.724 10.4757 6.18739 10.6123 6.67221 10.631C6.26465 10.3594 5.9304 9.99143 5.69911 9.55969C5.46783 9.12796 5.34665 8.64582 5.34632 8.15604C5.34632 7.60158 5.49096 7.09533 5.75078 6.65604C6.49784 7.57569 7.43006 8.32785 8.48685 8.86363C9.54364 9.3994 10.7013 9.70681 11.8847 9.76586C11.4642 7.74354 12.9749 6.10693 14.791 6.10693C15.6481 6.10693 16.4195 6.46586 16.9633 7.04443C17.6356 6.91854 18.2785 6.66675 18.8517 6.32925C18.6294 7.01765 18.1633 7.5989 17.5445 7.96586C18.1445 7.90158 18.7231 7.73551 19.2588 7.50247C18.8544 8.09711 18.3481 8.62479 17.7669 9.04533Z" fill="white"/>
</svg>

<svg xmlns="http://www.w3.org/2000/svg" width="24" height="24" fill="none">
  <circle cx="12" cy="12" r="12" fill="#171717" />
  <path fill="#fff" d="M17.767 9.045c.008.126.008.257.008.386 0 3.932-2.995 8.462-8.467 8.462a8.437 8.437 0 0 1-4.57-1.334c.241.026.472.037.718.037a5.968 5.968 0 0 0 3.694-1.27 2.976 2.976 0 0 1-2.78-2.062c.458.067.87.067 1.341-.053a2.973 2.973 0 0 1-2.38-2.92v-.038c.393.223.856.36 1.341.378a2.976 2.976 0 0 1-.921-3.975 8.445 8.445 0 0 0 6.134 3.11c-.42-2.022 1.09-3.66 2.906-3.66a2.97 2.97 0 0 1 2.172.938 5.877 5.877 0 0 0 1.889-.715 2.96 2.96 0 0 1-1.308 1.637c.6-.064 1.18-.23 1.715-.464a6.235 6.235 0 0 1-1.492 1.543Z" />
</svg>
